icons/desktop/16/svg/pin-16.svg

<svg width="16" height="16" viewBox="0 0 16 16" fill="none" xmlns="http://www.w3.org/2000/svg">
<path fill-rule="evenodd" clip-rule="evenodd" d="M7.23734 1.13967C7.5745 0.899293 8.04271 0.977485 8.28324 1.31448C8.52365 1.65169 8.44556 2.11988 8.10843 2.36037C7.97815 2.45326 7.85024 2.54641 7.72464 2.63967L9.96976 4.88284L12.4795 5.10354C13.3803 5.18266 14.0752 5.75155 14.418 6.44631C14.7607 7.14086 14.7876 8.04287 14.2393 8.77346L14.2383 8.77248C13.5796 9.65146 12.9368 10.3809 12.3262 11.0322L12.3174 11.041L12.3086 11.0508L12.2178 11.1406L15.7813 14.7207C16.0734 15.0142 16.0726 15.489 15.7793 15.7813C15.4859 16.0734 15.011 16.0726 14.7188 15.7793L11.1543 12.1992L11.0489 12.3057L11.0401 12.3145L11.0313 12.3223C10.262 13.0407 9.48907 13.7029 8.74222 14.2608C8.00862 14.8102 7.10897 14.7659 6.42484 14.4141C5.74197 14.0629 5.1847 13.3662 5.10648 12.4776L4.88577 9.9678L2.63968 7.72366C2.54343 7.85331 2.45064 7.98184 2.36038 8.10842C2.11988 8.44556 1.6517 8.52366 1.31449 8.28323C0.977486 8.04269 0.899286 7.57449 1.13968 7.23733C1.87349 6.20818 2.79165 5.07655 3.9346 3.93459L4.27835 3.59768C5.10205 2.80379 6.08258 1.96298 7.23734 1.13967ZM6.54007 3.57619C6.09778 3.94894 5.69183 4.31878 5.31937 4.67776L4.99515 4.99514C4.47462 5.5152 4.00333 6.03309 3.57718 6.53909L6.13968 9.09963L6.33206 9.29299L6.35648 9.56448L6.60062 12.3467C6.62857 12.6628 6.83087 12.9359 7.11136 13.0801C7.39052 13.2235 7.65756 13.2 7.84378 13.0606C8.53464 12.5446 9.26448 11.9189 10.0069 11.2256L11.2491 9.9883C11.8311 9.36659 12.4298 8.6861 13.0391 7.87307L13.0899 7.79494C13.1927 7.60389 13.195 7.35754 13.0733 7.11037C12.9339 6.82799 12.6667 6.62568 12.3487 6.59768L9.56644 6.35354L9.29495 6.32912L9.10159 6.13674L6.54007 3.57619Z" fill="black"/>
</svg>

<!-- This Source Code Form is subject to the terms of the Mozilla Public
   - License, v. 2.0. If a copy of the MPL was not distributed with this
   - file, You can obtain one at http://mozilla.org/MPL/2.0/. -->
<svg xmlns="http://www.w3.org/2000/svg" width="16" height="16" fill="context-fill" fill-opacity="context-fill-opacity" viewBox="0 0 16 16">
    <path fill-rule="evenodd" d="M7.237 1.14a.75.75 0 0 1 .871 1.22 25 25 0 0 0-.383.28L9.97 4.883l2.51.22c.9.08 1.595.649 1.938 1.343.343.695.37 1.597-.179 2.327a26 26 0 0 1-1.913 2.26l-.009.008-.008.01-.091.09 3.563 3.58a.75.75 0 0 1-1.062 1.058l-3.565-3.58-.105.107-.009.009-.009.007c-.769.719-1.542 1.38-2.289 1.939-.733.55-1.633.505-2.317.153a2.43 2.43 0 0 1-1.319-1.936l-.22-2.51L2.64 7.724q-.145.195-.28.384a.75.75 0 0 1-1.22-.87 26 26 0 0 1 2.795-3.303l.343-.337a26 26 0 0 1 2.96-2.458M6.54 3.576q-.663.562-1.22 1.102l-.325.317c-.52.52-.992 1.038-1.418 1.544L6.14 9.1l.192.194.024.271.245 2.783c.028.316.23.589.51.733.28.143.547.12.733-.02a26 26 0 0 0 2.163-1.834l1.242-1.238a25 25 0 0 0 1.79-2.115l.05-.078c.104-.191.106-.437-.016-.685a.9.9 0 0 0-.724-.512l-2.783-.244-.271-.025-.193-.192z" clip-rule="evenodd" />
</svg>
